src/components/CallToAction/images/book.svg

<svg xmlns="http://www.w3.org/2000/svg" width="21" height="17" fill="none" viewBox="0 0 21 17"><path fill="#fff" fill-rule="evenodd" d="M2.51051 0.114522C5.08709 -0.480073 10.5045 1.36978 10.5045 2.6911C10.5045 1.36978 15.8559 -0.480073 18.4985 0.114522C18.961 0.246654 19.2913 0.709116 19.2913 1.17158V3.21963C20.3484 3.21963 20.9429 3.35176 20.9429 4.34275V14.2527C20.9429 14.7151 20.5465 15.1115 20.018 15.1115H16.6486C14.2042 15.1115 13.0811 15.8382 11.7598 16.631C11.4294 16.8292 10.5045 16.6971 10.5045 16.4989C10.5045 16.6971 9.51351 16.8292 9.18318 16.631C7.86186 15.8382 6.73874 15.1115 4.29429 15.1115H0.924925C0.396396 15.1115 0 14.7151 0 14.2527L0.0660661 4.34275C0.0660661 3.35176 0.594595 3.21963 1.65165 3.21963V1.17158C1.65165 0.709116 2.04805 0.246654 2.51051 0.114522ZM10.5045 13.6581C9.77778 13.6581 9.84384 13.3277 9.84384 12.9313V3.68209C9.84384 3.48389 9.64565 3.35176 9.51351 3.21963C7.72973 1.76617 5.61562 1.17158 3.23724 1.30371C3.03904 1.30371 2.90691 1.50191 2.90691 1.63404V12.4028C2.90691 12.601 3.03904 12.7331 3.23724 12.7331C5.74775 12.7992 8.45646 13.4599 10.5045 15.1115C12.4865 13.4599 15.1952 12.7992 17.7718 12.7331C17.9039 12.7331 18.1021 12.601 18.1021 12.4028V1.63404C18.1021 1.50191 17.9039 1.30371 17.7718 1.30371C15.3273 1.17158 13.2132 1.76617 11.4294 3.21963C11.2973 3.35176 11.1652 3.48389 11.1652 3.68209V12.9313C11.1652 13.3277 11.1652 13.6581 10.5045 13.6581Z" clip-rule="evenodd"/></svg>

<svg fill="none" viewBox="0 0 21 17"><path fill="#fff" fill-rule="evenodd" d="M2.51.115C5.088-.48 10.506 1.37 10.506 2.69c0-1.321 5.35-3.171 7.993-2.576.463.132.793.594.793 1.057V3.22c1.057 0 1.652.132 1.652 1.123v9.91c0 .462-.396.858-.925.858h-3.37c-2.444 0-3.567.727-4.888 1.52-.33.198-1.255.066-1.255-.132 0 .198-.991.33-1.322.132-1.321-.793-2.444-1.52-4.889-1.52H.924c-.528 0-.924-.396-.924-.858l.066-9.91c0-.991.529-1.123 1.586-1.123V1.172c0-.463.396-.925.859-1.057zm7.995 13.543c-.727 0-.661-.33-.661-.727V3.682c0-.198-.198-.33-.33-.462C7.73 1.766 5.616 1.172 3.237 1.304c-.198 0-.33.198-.33.33v10.769c0 .198.132.33.33.33 2.51.066 5.22.727 7.268 2.378 1.981-1.651 4.69-2.312 7.267-2.378.132 0 .33-.132.33-.33V1.634c0-.132-.198-.33-.33-.33-2.445-.132-4.559.462-6.343 1.916-.132.132-.264.264-.264.462v9.25c0 .396 0 .726-.66.726z" clip-rule="evenodd"/></svg>
